X:204
T: GESTERN ABEND GING ICH AUS
N: F0351A
O: Europa, Mitteleuropa, Deutschland
R: Jugend - Lied, Tier - Geschichte
M: 2/4
L: 1/8
K: G
 | DGGG | FAA2 |
cAGF | AGG2 |
DGGG | FAA2 |
cAGF | AGG2 |
dBBG | GEE2 |
cBAG | FED2 |
DGGG | FAA2 |
cAGF | AGG2 |
dBBG | GEE2 |
cBAG | FED2 |
DGGG | FAA2 |
cAGF | AGG2

@@@ Tune index: 5635
